static/assets/images/exchanges/kodiak.svg

<svg width="397" height="256" viewBox="0 0 397 256" fill="none" xmlns="http://www.w3.org/2000/svg">
<path d="M396.834 255.771L264.689 64.607L226.594 93.5482L273.121 152.426L144.744 24.1504L0 255.771H396.834Z" fill="white"/>
<path d="M281.416 209.782C268.057 165.44 227.955 157.725 211.315 157.725C203.648 157.725 175.331 145.434 164.98 140.093C163.526 139.345 161.543 134.999 162.144 133.47L165.081 128.659C165.882 125.323 166.491 121.664 163.715 119.679L158.864 117.253C158.155 116.892 157.354 116.757 156.568 116.864C155.781 116.972 155.045 117.318 154.457 117.855L149.843 122.056C149.843 122.056 126.673 116.889 122.655 117.499C120.304 117.859 118.109 121.801 116.691 125.016C116.302 125.848 115.625 126.507 114.788 126.871C113.95 127.234 113.01 127.276 112.144 126.989C103.889 124.07 100.528 125.02 100.528 125.02C100.528 125.02 93.2772 134.534 100.528 141.852C156.668 200.074 175.7 188.458 182.818 255.996H208.455L220.4 230.524L240.713 230.706L250.403 256H288.277L281.416 209.782ZM125.011 129.952C124.505 129.952 124.01 129.801 123.589 129.517C123.168 129.233 122.84 128.83 122.646 128.358C122.452 127.886 122.402 127.366 122.501 126.865C122.599 126.364 122.843 125.904 123.201 125.542C123.559 125.181 124.015 124.935 124.512 124.835C125.008 124.735 125.523 124.786 125.99 124.982C126.458 125.177 126.858 125.509 127.139 125.934C127.42 126.359 127.571 126.858 127.571 127.369C127.571 128.054 127.301 128.711 126.821 129.196C126.341 129.68 125.69 129.952 125.011 129.952Z" fill="#3083DC"/>
<path fill-rule="evenodd" clip-rule="evenodd" d="M211.048 0.639484C211.454 0.230028 212.004 0 212.578 0V0.0202174C213.151 0.0202174 213.702 0.250246 214.107 0.659702C214.513 1.06916 214.741 1.6245 214.741 2.20356C214.745 6.56915 216.465 10.7548 219.523 13.8421C222.581 16.9294 226.727 18.6663 231.052 18.6716C231.626 18.6716 232.176 18.9016 232.582 19.3111C232.988 19.7206 233.215 20.2759 233.215 20.855C233.215 21.434 232.988 21.9893 232.582 22.3988C232.176 22.8082 231.626 23.0383 231.052 23.0383C226.735 23.0479 222.596 24.7835 219.543 27.8652C216.49 30.9469 214.77 35.124 214.761 39.4821C214.761 40.0613 214.533 40.6165 214.127 41.0261C213.722 41.4354 213.171 41.6654 212.598 41.6654C212.024 41.6654 211.474 41.4354 211.068 41.0261C210.662 40.6165 210.435 40.0613 210.435 39.4821C210.43 35.1134 208.708 30.9251 205.645 27.8379C202.583 24.7506 198.431 23.017 194.103 23.0181C193.529 23.0181 192.979 22.7881 192.573 22.3786C192.168 21.9691 191.94 21.4138 191.94 20.8347C191.94 20.2557 192.168 19.7003 192.573 19.2909C192.979 18.8814 193.529 18.6514 194.103 18.6514C198.428 18.6461 202.575 16.9092 205.633 13.8218C208.691 10.7345 210.41 6.54892 210.415 2.18334C210.415 1.60428 210.643 1.04894 211.048 0.639484Z" fill="white"/>
<path fill-rule="evenodd" clip-rule="evenodd" d="M29.6375 62.5009C30.0433 62.0914 30.5934 61.8614 31.1672 61.8614V61.8816C31.7407 61.8816 32.2912 62.1117 32.6966 62.5211C33.1024 62.9306 33.3303 63.4859 33.3303 64.065C33.3345 68.4306 35.0543 72.6162 38.1122 75.7035C41.1703 78.7908 45.3166 80.5277 49.6418 80.533C50.2153 80.533 50.7657 80.7631 51.1712 81.1725C51.577 81.582 51.8048 82.1373 51.8048 82.7164C51.8048 83.2954 51.577 83.8507 51.1712 84.2602C50.7657 84.6697 50.2153 84.8997 49.6418 84.8997C45.324 84.9093 41.1857 86.6449 38.1326 89.7266C35.0793 92.8084 33.3597 96.9854 33.3505 101.343C33.3505 101.923 33.1223 102.478 32.7168 102.887C32.311 103.297 31.7609 103.527 31.1871 103.527C30.6136 103.527 30.0635 103.297 29.6577 102.887C29.2519 102.478 29.024 101.923 29.024 101.343C29.0198 96.9748 27.2971 92.7865 24.2348 89.6993C21.1724 86.612 17.0207 84.8784 12.6927 84.8795C12.1189 84.8795 11.5687 84.6495 11.1629 84.24C10.7575 83.8306 10.5296 83.2752 10.5296 82.6962C10.5296 82.1171 10.7575 81.5617 11.1629 81.1523C11.5687 80.7428 12.1189 80.5128 12.6927 80.5128C17.0178 80.5075 21.1641 78.7706 24.222 75.6833C27.2802 72.596 28.9997 68.4103 29.0042 64.0448C29.0042 63.4657 29.232 62.9104 29.6375 62.5009Z" fill="white"/>
<path d="M141.163 179.003C141.163 179.003 150.368 202.21 144.268 255.766H170.165C170.165 255.766 178.23 230.875 175.713 220.135C170.777 199.075 141.163 179.003 141.163 179.003Z" fill="url(#paint0_linear_10902_664)"/>
<defs>
<linearGradient id="paint0_linear_10902_664" x1="149.591" y1="223.441" x2="177.017" y2="194.31" gradientUnits="userSpaceOnUse">
<stop stop-color="#3083DC"/>
<stop offset="0.1" stop-color="#2E7FD5"/>
<stop offset="0.24" stop-color="#2A72C0"/>
<stop offset="0.41" stop-color="#235F9F"/>
<stop offset="0.61" stop-color="#194370"/>
<stop offset="0.82" stop-color="#0C2036"/>
<stop offset="1"/>
</linearGradient>
</defs>
</svg>

<svg xmlns="http://www.w3.org/2000/svg" fill="none" viewBox="0 0 397 256"><path fill="#fff" d="M396.834 255.771 264.689 64.607l-38.095 28.941 46.527 58.878L144.744 24.15 0 255.771z"/><path fill="#3083DC" d="M281.416 209.782c-13.359-44.342-53.461-52.057-70.101-52.057-7.667 0-35.984-12.291-46.335-17.632-1.454-.748-3.437-5.094-2.836-6.623l2.937-4.811c.801-3.336 1.41-6.995-1.366-8.98l-4.851-2.426a3.9 3.9 0 0 0-4.407.602l-4.614 4.201s-23.17-5.167-27.188-4.557c-2.351.36-4.546 4.302-5.964 7.517a3.76 3.76 0 0 1-1.903 1.855 3.7 3.7 0 0 1-2.644.118c-8.255-2.919-11.616-1.969-11.616-1.969s-7.25 9.514 0 16.832c56.14 58.222 75.172 46.606 82.29 114.144h25.637l11.945-25.472 20.313.182 9.69 25.294h37.874zm-156.405-79.83a2.54 2.54 0 0 1-1.422-.435 2.6 2.6 0 0 1-.943-1.159 2.6 2.6 0 0 1 .555-2.816 2.56 2.56 0 0 1 1.311-.707 2.53 2.53 0 0 1 1.478.147 2.56 2.56 0 0 1 1.149.952 2.6 2.6 0 0 1-.318 3.262 2.55 2.55 0 0 1-1.81.756"/><path fill="#fff" fill-rule="evenodd" d="M211.048.64c.406-.41.956-.64 1.53-.64v.02c.573 0 1.124.23 1.529.64.406.41.634.965.634 1.544a16.56 16.56 0 0 0 4.782 11.638 16.25 16.25 0 0 0 11.529 4.83c.574 0 1.124.23 1.53.64.406.409.633.964.633 1.543s-.227 1.134-.633 1.544-.956.64-1.53.64a16.25 16.25 0 0 0-11.509 4.826 16.56 16.56 0 0 0-4.782 11.617 2.2 2.2 0 0 1-.634 1.544 2.15 2.15 0 0 1-3.059 0 2.2 2.2 0 0 1-.633-1.544 16.56 16.56 0 0 0-4.79-11.644 16.25 16.25 0 0 0-11.542-4.82c-.574 0-1.124-.23-1.53-.64a2.196 2.196 0 0 1 0-3.087c.406-.41.956-.64 1.53-.64a16.26 16.26 0 0 0 11.53-4.83 16.57 16.57 0 0 0 4.782-11.638c0-.579.228-1.134.633-1.544M29.638 62.5a2.15 2.15 0 0 1 1.53-.639v.02c.573 0 1.123.23 1.529.64s.633.965.633 1.544a16.56 16.56 0 0 0 4.782 11.639 16.26 16.26 0 0 0 11.53 4.829c.573 0 1.124.23 1.53.64a2.193 2.193 0 0 1 0 3.088 2.16 2.16 0 0 1-1.53.639 16.25 16.25 0 0 0-11.51 4.827 16.56 16.56 0 0 0-4.782 11.616c0 .58-.228 1.135-.633 1.544a2.15 2.15 0 0 1-3.06 0 2.2 2.2 0 0 1-.633-1.544 16.56 16.56 0 0 0-4.79-11.644 16.25 16.25 0 0 0-11.541-4.82c-.574 0-1.124-.23-1.53-.639a2.194 2.194 0 0 1 0-3.088c.406-.41.956-.64 1.53-.64a16.26 16.26 0 0 0 11.529-4.829 16.56 16.56 0 0 0 4.782-11.638c0-.58.228-1.135.633-1.544" clip-rule="evenodd"/><path fill="url(#paint0_linear_10902_664)" d="M141.163 179.003s9.205 23.207 3.105 76.763h25.897s8.065-24.891 5.548-35.631c-4.936-21.06-34.55-41.132-34.55-41.132"/><defs><linearGradient id="paint0_linear_10902_664" x1="149.591" x2="177.017" y1="223.441" y2="194.31" gradientUnits="userSpaceOnUse"><stop stop-color="#3083DC"/><stop offset=".1" stop-color="#2E7FD5"/><stop offset=".24" stop-color="#2A72C0"/><stop offset=".41" stop-color="#235F9F"/><stop offset=".61" stop-color="#194370"/><stop offset=".82" stop-color="#0C2036"/><stop offset="1"/></linearGradient></defs></svg>
